X: 38928
T: Surfing Bride, The
R: polka
M: 2/4
K: Cmajor
|:(G,C)C(G,A,)C(B,C)|CGGC(ED)DC|(G,C)CG, (A,C)(B,C)|CG(GE) D2 (DC)|
(G,C)(CG,) (A,C)(B,C)|CG(GC) (ED)D[G,G]|(EF)ED CA,(A,G,)|(G,C)GE D2 DC:|
|:(EF)ED C2 CA,|G,GGE EDDG,|(EF)ED C2 CA,|G,CCG, A,CB,D|
(EF)ED C2 CA,|G,GGE EDDG,|(EF)ED CA,A,G,|G,CGE D2 D2:|
(.E.E.E)(.F .F.F)(.G.G|.G)(.G.G)(.G .G.G).G.G|(.E.E.E)(.F .F.F)(.G.G|1 .G)(.G.G)(.G .G.G).G.G:|2 (G4 G4)||

